X: 20
T: Praeludia organi op. 5 – Larghetto
C: Franciszek Walczyński
%%abc-version 2.0
%%abcx-abcm2ps-target-version 5.9.1 (29 Sep 2008)
%%abc-creator hum2abc beta
%%abcx-conversion-date 2021/10/04 07:38:40
%%abc-edited-by Andrzej Borzym
%%abc-edited-by Andrzej Kubiczek
%%abcx-initial-encoding-date 2021-07-26
%%humdrum-veritas 1900213250
%%humdrum-veritas-data 606432035
%%linebreak <none>
%%barnumbers 0
L: 1/4
M: 3/4
N: Derived from pl-kozmzk--mzk-m-159--009_walczynski-franciszek--praeludia-organi-op-5-larghetto.krn
Q: "9 Larghetto."
%%staves {1 2}
V: 1 clef=treble
V: 2 clef=bass
K: E
[V:1] z3 & z3 | 
[V:2] z3 & B,!accent!B,3/A,/ | 
[V:1] z3 & z3 | 
[V:2] z3 & A,G,2 | 
[V:1] z3 & z3 | 
[V:2] C!accent!C3/B,/ & ^E,D,E, | 
[V:1] z3 & z3 | 
[V:2] B,A,^A, & F,2=E, | 
[V:1] z3 & F!accent!F3/E/ | 
[V:2] B,^A,2 & D,C,F,, | 
[V:1] z3 & E!accent!D3/D/ | 
[V:2] ^A,2B, & ^^F,,^^F,G, | 
[V:1] B!accent!B3/A/ & CD2 | 
[V:2] G,A,3/B,/ & E,F,B,, | 
[V:1] A!accent!G3/G/ & =D2E | 
[V:2] B,3- & ^E,=E,=D, | 
[V:1] G!accent!A3/G/ & ^E3- | 
[V:2] B,CB,- & C,3 | 
[V:1] G!accent!F3/F/ & EF2 | 
[V:2] B,A,2 & F,2E, | 
[V:1] f!accent!f3/e/ & A2-A/G/ | 
[V:2] B,3- & D,C,D,/E,/ | 
[V:1] ed2 & A3 | 
[V:2] B,2^B, & F,3 | 
[V:1] =dc3/B/ & G3 | 
[V:2] =B,C=D- & ^E,3 | 
[V:1] B!fermata!A2 & GF2 | 
[V:2] DC2 & !fermata!F,3 | 
[V:1] A!accent!G3/F/ & F^EC | 
[V:2] CB,A, & F,,G,,A,, | 
[V:1] cB2 & =E3- | 
[V:2] ^^F,G,B, & ^A,,B,,2- | 
[V:1] A!accent!G3/F/ & ED2 | 
[V:2] CB,A, & B,,3 | 
[V:1] E3- & B,3 | 
[V:2] G,3 & E,3 | 
[V:1] E3- & =D!accent!=C3/A,/ | 
[V:2] E,3 & A,,2=C, | 
[V:1] !fermata!E3 & B,3 |]  
[V:2] G,3 & !fermata!E,3 |]  


